pics/icons/16x16/actions/go-up.svg

<svg xmlns="http://www.w3.org/2000/svg" xmlns:xlink="http://www.w3.org/1999/xlink" height="16" width="16" version="1.0"><defs><linearGradient id="c"><stop offset="0"/><stop offset="1" stop-opacity="0"/></linearGradient><linearGradient id="a"><stop offset="0" stop-color="#fff"/><stop offset="1" stop-color="#fff" stop-opacity="0"/></linearGradient><radialGradient xlink:href="#a" id="e" gradientUnits="userSpaceOnUse" gradientTransform="matrix(0 -.88202 .69278 0 -1.192 28.094)" cx="22.215" cy="5.505" fx="22.215" fy="5.505" r="17.171"/><radialGradient xlink:href="#b" id="d" gradientUnits="userSpaceOnUse" gradientTransform="matrix(0 -.3633 -.45374 0 18.16 17.602)" cx="17.745" cy="19.393" fx="17.745" fy="19.393" r="16.956"/><linearGradient id="b"><stop offset="0" stop-color="#73d216"/><stop offset="1" stop-color="#4e9a06"/></linearGradient></defs><g color="#000"><path style="marker:none" d="M4.5 15.5v-5h-4L8 .5l7.5 10h-4v5h-7z" fill="url(#d)" fill-rule="evenodd" stroke="#3a7304" stroke-linecap="round" stroke-linejoin="round" stroke-miterlimit="10" overflow="visible"/><path d="M1.5 10H5v5h1c0-9 6-7.5 2-13.5L1.5 10z" style="marker:none" opacity=".508" fill="url(#e)" fill-rule="evenodd" overflow="visible"/><path style="marker:none" d="M5.5 14.5v-5h-3L8 2l5.5 7.5h-3v5h-5z" opacity=".481" fill="none" stroke="#fff" stroke-miterlimit="10" overflow="visible"/></g></svg>

<?xml version="1.0" encoding="UTF-8" standalone="no"?>
<!-- Created with Inkscape (http://www.inkscape.org/) -->
<svg
   xmlns:dc="http://purl.org/dc/elements/1.1/"
   xmlns:cc="http://creativecommons.org/ns#"
   xmlns:rdf="http://www.w3.org/1999/02/22-rdf-syntax-ns#"
   xmlns:svg="http://www.w3.org/2000/svg"
   xmlns="http://www.w3.org/2000/svg"
   xmlns:xlink="http://www.w3.org/1999/xlink"
   xmlns:sodipodi="http://sodipodi.sourceforge.net/DTD/sodipodi-0.dtd"
   xmlns:inkscape="http://www.inkscape.org/namespaces/inkscape"
   sodipodi:docname="go-up.svg"
   sodipodi:docbase="/home/ulisse/icone/tango-ubuntu/arrows/green/16x16"
   inkscape:version="0.46"
   sodipodi:version="0.32"
   id="svg11300"
   height="16"
   width="16"
   inkscape:export-filename="/home/ulisse/icone/tango-ubuntu/arrows/green/16x16/go-up.png"
   inkscape:export-xdpi="90.000000"
   inkscape:export-ydpi="90.000000"
   version="1.0"
   inkscape:output_extension="org.inkscape.output.svg.inkscape">
  <defs
     id="defs3">
    <inkscape:perspective
       sodipodi:type="inkscape:persp3d"
       inkscape:vp_x="0 : 8 : 1"
       inkscape:vp_y="0 : 1000 : 0"
       inkscape:vp_z="16 : 8 : 1"
       inkscape:persp3d-origin="8 : 5.3333333 : 1"
       id="perspective24" />
    <linearGradient
       id="linearGradient8662"
       inkscape:collect="always">
      <stop
         id="stop8664"
         offset="0"
         style="stop-color:#000000;stop-opacity:1;" />
      <stop
         id="stop8666"
         offset="1"
         style="stop-color:#000000;stop-opacity:0;" />
    </linearGradient>
    <linearGradient
       id="linearGradient8650"
       inkscape:collect="always">
      <stop
         id="stop8652"
         offset="0"
         style="stop-color:#ffffff;stop-opacity:1;" />
      <stop
         id="stop8654"
         offset="1"
         style="stop-color:#ffffff;stop-opacity:0;" />
    </linearGradient>
    <radialGradient
       inkscape:collect="always"
       xlink:href="#linearGradient8650"
       id="radialGradient1353"
       gradientUnits="userSpaceOnUse"
       gradientTransform="matrix(-1.667629e-16,-0.882016,0.692777,-1.229645e-16,-1.192324,28.0939)"
       cx="22.214903"
       cy="5.5045624"
       fx="22.214903"
       fy="5.5045624"
       r="17.171415" />
    <radialGradient
       inkscape:collect="always"
       xlink:href="#linearGradient2591"
       id="radialGradient1356"
       gradientUnits="userSpaceOnUse"
       gradientTransform="matrix(-8.325566e-17,-0.363292,-0.453739,9.761763e-17,18.1592,17.60199)"
       cx="17.744799"
       cy="19.392538"
       fx="17.744799"
       fy="19.392538"
       r="16.9562" />
    <radialGradient
       gradientUnits="userSpaceOnUse"
       gradientTransform="matrix(0.843022,1.871885e-16,-2.265228e-16,1.020168,4.499298,1.381992)"
       r="16.9562"
       fy="32.797512"
       fx="22.291636"
       cy="32.797512"
       cx="22.291636"
       id="radialGradient2597"
       xlink:href="#linearGradient2591"
       inkscape:collect="always" />
    <radialGradient
       inkscape:collect="always"
       xlink:href="#linearGradient8662"
       id="radialGradient8668"
       cx="24.837126"
       cy="36.421127"
       fx="24.837126"
       fy="36.421127"
       r="15.644737"
       gradientTransform="matrix(1,0,0,0.536723,3.143318e-15,16.87306)"
       gradientUnits="userSpaceOnUse" />
    <radialGradient
       inkscape:collect="always"
       xlink:href="#linearGradient8650"
       id="radialGradient8656"
       cx="19.701141"
       cy="2.8969381"
       fx="19.701141"
       fy="2.8969381"
       r="17.171415"
       gradientTransform="matrix(2.046729,-3.749427e-16,2.853404e-16,1.55761,-19.51799,3.452086)"
       gradientUnits="userSpaceOnUse" />
    <linearGradient
       id="linearGradient2591">
      <stop
         id="stop2593"
         offset="0"
         style="stop-color:#73d216" />
      <stop
         id="stop2595"
         offset="1.0000000"
         style="stop-color:#4e9a06" />
    </linearGradient>
  </defs>
  <sodipodi:namedview
     inkscape:window-y="91"
     inkscape:window-x="90"
     inkscape:window-height="688"
     inkscape:window-width="872"
     inkscape:showpageshadow="false"
     inkscape:document-units="px"
     inkscape:grid-bbox="true"
     showgrid="true"
     inkscape:current-layer="layer1"
     inkscape:cy="4.528636"
     inkscape:cx="-2.4399761"
     inkscape:zoom="15.999999"
     inkscape:pageshadow="2"
     inkscape:pageopacity="0.0"
     borderopacity="1"
     bordercolor="#666666"
     pagecolor="#ffffff"
     id="base"
     fill="#4e9a06"
     stroke="#4e9a06"
     inkscape:grid-points="true">
    <inkscape:grid
       id="GridFromPre046Settings"
       type="xygrid"
       originx="0px"
       originy="0px"
       spacingx="0.5px"
       spacingy="0.5px"
       color="#0000ff"
       empcolor="#0000ff"
       opacity="0.2"
       empopacity="0.4"
       empspacing="2" />
  </sodipodi:namedview>
  <metadata
     id="metadata4">
    <rdf:RDF>
      <cc:Work
         rdf:about="">
        <dc:format>image/svg+xml</dc:format>
        <dc:type
           rdf:resource="http://purl.org/dc/dcmitype/StillImage" />
        <dc:creator>
          <cc:Agent>
            <dc:title>Ulisse Perusin</dc:title>
          </cc:Agent>
        </dc:creator>
        <dc:source />
        <cc:license
           rdf:resource="http://creativecommons.org/licenses/publicdomain/" />
        <dc:title>Go Up</dc:title>
        <dc:subject>
          <rdf:Bag>
            <rdf:li>go</rdf:li>
            <rdf:li>upper</rdf:li>
            <rdf:li>up</rdf:li>
            <rdf:li>arrow</rdf:li>
            <rdf:li>pointer</rdf:li>
            <rdf:li>&gt;</rdf:li>
          </rdf:Bag>
        </dc:subject>
        <dc:contributor>
          <cc:Agent>
            <dc:title>Andreas Nilsson
Jakub Steiner</dc:title>
          </cc:Agent>
        </dc:contributor>
      </cc:Work>
      <cc:License
         rdf:about="http://creativecommons.org/licenses/publicdomain/">
        <cc:permits
           rdf:resource="http://creativecommons.org/ns#Reproduction" />
        <cc:permits
           rdf:resource="http://creativecommons.org/ns#Distribution" />
        <cc:permits
           rdf:resource="http://creativecommons.org/ns#DerivativeWorks" />
      </cc:License>
    </rdf:RDF>
  </metadata>
  <g
     inkscape:groupmode="layer"
     inkscape:label="Layer 1"
     id="layer1">
    <path
       style="color:#000000;fill:url(#radialGradient1356);fill-opacity:1.0;fill-rule:evenodd;stroke:#3a7304;stroke-width:0.99999994;stroke-linecap:round;stroke-linejoin:round;marker:none;marker-start:none;marker-mid:none;marker-end:none;stroke-miterlimit:10;stroke-dasharray:none;stroke-dashoffset:0;stroke-opacity:1;visibility:visible;display:inline;overflow:visible"
       d="M 4.5,15.5 L 4.5,10.5 L 0.5,10.5 L 8,0.50000003 L 15.5,10.5 L 11.5,10.5 L 11.5,15.5 L 4.5,15.5 z "
       id="path8643"
       sodipodi:nodetypes="cccccccc" />
    <path
       sodipodi:nodetypes="cccccc"
       id="path8645"
       d="M 1.5,10 L 5,10 L 5,15 L 6,15 C 6,6 12,7.5 8,1.5 L 1.5,10 z "
       style="opacity:0.5080214;color:#000000;fill:url(#radialGradient1353);fill-opacity:1;fill-rule:evenodd;stroke:none;stroke-width:1;stroke-linecap:round;stroke-linejoin:round;marker:none;marker-start:none;marker-mid:none;marker-end:none;stroke-miterlimit:10;stroke-dasharray:none;stroke-dashoffset:0;stroke-opacity:1;visibility:visible;display:inline;overflow:visible" />
    <path
       style="opacity:0.48128339;color:#000000;fill:none;fill-opacity:1;fill-rule:evenodd;stroke:#ffffff;stroke-width:1;stroke-linecap:butt;stroke-linejoin:miter;marker:none;marker-start:none;marker-mid:none;marker-end:none;stroke-miterlimit:10;stroke-dasharray:none;stroke-dashoffset:0;stroke-opacity:1;visibility:visible;display:inline;overflow:visible"
       d="M 5.5,14.5 L 5.5,9.5 L 2.5,9.5 L 8,2 L 13.5,9.5 L 10.5,9.5 L 10.5,14.5 L 5.5,14.5 z "
       id="path8658"
       sodipodi:nodetypes="cccccccc" />
  </g>
</svg>
